!!!OTL: KATHRINCHEN TRAU NUR NICHT
!!!ARE: Europa, Mitteleuropa, Deutschland, Hessen, Wetterau; Rheinland
!!!SCT: E1423A
!!!YEM: Copyright 1995, estate of Helmut Schaffrath.
**kern
*ICvox
*Ivox
!! Mixed meters:  4/4; 2/4
*M2/4
*k[f#]
*G:
{4d
=1
4.g
8a
8.b
16a
8b
8ee
=2
2dd}
=3
{2ee
=4
*M4/4
4.dd
8b
4cc
8dd
8cc
=5
2b
4r}
{8dd
8cc
=6
4b
4gg
4.ee
8dd
=7
*M2/4
8ee
8dd
8cc
8b}
=8
*M4/4
{4a
4ee
4.dd
8ee
=9
*M2/4
8dd
8cc
8b
8cc}
=10
*M4/4
{4dd
8dd
8cc
4b
4r}
=11
*M2/4
{2ee
=12
4dd
8dd
8cc
4b}
==
!!!AGN: Staende -, Soldaten - Lied, Liebe +++ Taktwechsel nachtraeglich ++++
!!!ONB: ESAC (Essen Associative Code) Database: ERK3
!!!AMT: irregular
!!!AIN: vox
!!!EED: Helmut Schaffrath
!!!EEV: 1.0
*-
